X:1
T:Ung peu plus hault
T:Pierre Passereau
T:Source : Tiers livre contenant 21 chansons à 4, eslevées de plusieurs livres---Paris---P.Attaignant---1536. Editor : André Vierendeels ( 05/01/18)
T:Ung peu plus hault
T:©
T:©
T:©
T:©
T:©
T:©
C:Pierre Passereau
Z:©
%%score [ 1 [ 2 3 ] 4 ]
L:1/8
Q:1/4=120
M:4/4
K:C
V:1 treble nm="Soprano" snm="S"
V:2 treble-8 nm="Tenor 1" snm="T 1"
V:3 treble-8 nm="Tenor 2" snm="T 2"
V:4 bass nm="Bass" snm="B"
V:1
 G2 AB cABc | dD G4 F2 | E2 D2 F2 E2 | z2 A2 A2 A2 | d3 c B2 A2- |"^#" AG G4 F2 | G4 G2 c2- | %7
w: Ung peu plus hault ung peu plus|bas, mon a- my|ie vous pri- e,|non a- my|ie _ _ vous|_ _ pri- *|e, laul- trier|
 c2 B2 B2 c2 | d4 G2 c2- | cB/A/ B2 c4 | z2 G4 c2- | c2 B2 c2 d2- | dcBA G2 c2- | c2 B2 c4- | %14
w: _ iou- er ma-|loy- * *|* * * * e,|en no|_ stre iar- *||* di- net,|
 c4 z2 G2- | G2 c4 B2 | c2 e2 d2 GG | A2 c2 c2 B2 | c3 B/A/ G2 G2 | A3 B c2 d2- | dc c4 B2 | %21
w: _ trou-|* vay em-|my ma voy- e, mon|a- my Ro- bi-|net, _ _ _ mon|a- my Ro- *|* * * bi-|
 c4 z4 | z4 z2 A2 | GF E2 F2 FF | E2 D2 E2 F2 | G4 z4 | z2 A2 B2 G2 | d3 c B2 A2- | AG G4 F2 | %29
w: net,|le-|quel m'a prins, le- suel m'a|prins à grand sou-|hait,|sans nul- le|fa- * * che-|* * ri- *|
 G4 z2 G2- | G2 A2 B2 c2 | A2 d3 c BA | GABc AG c2- | c2 B2 c4- | c8 | z4 z2 c2 | c2 c2 B2 G2 | %37
w: e, ie|_ luy ay dict|de cueur _ _ _|_ _ _ _ _ _ _|* de- hait,|_|a-|col- lez vo- stre'a-|
 A3 G/F/ ED A2- | AG G4 F2 | G2 G2 A2 B2 | cABc dD G2- | G2 F2 E2 D2 | F2 E2 z2 A2 | A2 A2 d3 c | %44
w: my- * * * * *||e, ung peu plus|hault ung peu plus bas, mon a-|* my ie vous|pri- e, mon|a- my ie _|
 B2 A3 G G2- | G2 F2 G2 G2 | A2 F2 GG A2 | F2 G2 z DEF | G2 A3 G G2- | G2 F2 GGAF | G2 z G AF G2 | %51
w: _ vous _ pri-|* * e, ung|peu plus hault ung peu|plus bas, mon a- my|ie vous _ pri-|* * e, ung peu plus|hault, ung peu plus bas,|
 z2 D2 E2 F2 | G2 A3 G G2- |"^#" G2 F2 G4- | G8 |] %55
w: mon a- my|ie vous- * pri-|* * e.|_|
V:2
 z2 d2 efge | f2 e2 dGAB | cABc d2 z2 | G2 AB cdef | d2 f2 f3 e | d2 c2 d4 | B2 G2 c3 d | %7
w: Ung peu plus hault ung|peu plus bas, ung peu plus|hault un peu plus bas,|ung peu plus hault un peu plus|bas, mon a- my|ie vous pri-|e, laul- trier iou-|
 e2 f2 g3 f/e/ | dc d2 c2 g2 | g3 f e2 dc | d2 d2 c4 | z2 g2 e2 f2 | d2 g3 f e2- | ed/c/ d2 c4- | %14
w: er ma- * * *|* * loy- e, en|no- stre iar- * *|* di- net,|en no- stre|iar- * * *|* * * di- net,|
 c4 z4 | z4 z2 G2- | G2 c4 B2 | c2 e2 d4 | c2 e2 e2 de | fdef g2 g2 | a2 g3 f ed | e3 d/c/ B2 z2 | %22
w: _|trou-|* vay em-|my ma voy-|e, mon a- my _|_ _ _ _ _ Ro-|bi- net, _ _ _|_ _ _ _|
 f2 ed c2 d2 | edcB AG c2- | c2 B2 c4 | z4 c2 g2- | g2 f2 g2 d2 | d2 d2 f4- | f2 e2 d4 | %29
w: le- quel m'a pris à|grand _ _ _ _ _ _|_ sou- hait,|à grand|_ sou- hait, sans|nul- le fa-|* che- ri-|
 d2 d4 e2- | e2 f2 g4 | c2 d2 B2 G2 | z2 B2 cdef | g2 g2 e2 f2 | f2 f2 e2 f2 | g4 c4 | %36
w: e, ie luy|_ ay dict|de cueur de- hait,|de cueur- * * *|* de- hait, a-|col- lez vos- tre'a-|my- e,|
 z2 g2 g2 g2 | f3 e/f/ g2 c2 | e4 d4 | z4 z2 d2 | efge f2 e2 | dGAB cABc | d2 z2 G2 AB | %43
w: a- col- lez|vo _ _ _ stre'a-|my- e,|ung|peu plus hault ung peu plus|bas, ung peu plus hault ung peu plus|bas, ung peu plus|
 cdef d2 f2 | f3 e d2 c2 | d4 d4 | z2 A2 e2 e2 | dfee dfgf | e2 c2 e4 | d4 d2 z2 | G2 cc Afed | %51
w: hault ung peu plus _ bas,|mon _ _ _|_ _|ung peu plus|hault ung peu plus bas mon a- my|ie vou pri-|* e,|ung peu plus hault ung peu plus|
 c2 z2 z2 A2 | e2 c2 e2 e2 | d4 d4- | d8 |] %55
w: bas mon|a- my ie vous|pri- e.|_|
V:3
 z4 z2 G2 | ABcA Bc d2 | z2 G2 ABcA | Bc d2 z2 A2 | B2 A2 d3 c | B2 AG A4 | G4 z4 | z4 G2 c2- | %8
w: Ung|peu plus hault un peu plus bas,|ung peu plus hault ung|peu plus bas, mon|a- my ie vous|pri- * * *|e,|laul- trier|
 c2 B2 c2 e2 | d2 G2 G2 c2- | c2 B2 c2 e2 | d4 z2 A2 | B2 G2 G3 A | B2 G2 G2 z2 | G2 c4 B2 | %15
w: _ iou- er ma-|loy- e, en no|_ stre iar- di-|net, en|no- stre iar- *|* di- net,|trou- vay em-|
 c2 e2 d4 | c4 z4 | z4 z2 G2- | G2 c4 B2 | ABcd efde | fedc d2 d2 | c4 z2 e2 | dc B2 z2 A2 | %23
w: my ma voy-|e,|mon|_ a- my|Ro- * * * * * * *|* * * * * bi-|net, le-|quel m'a pris à|
 c4 F4 | G4 z4 | G2 c4 B2 | c4 z2 B2 | B2 A2 d3 d | cB BA/G/ A4 | G8 | z2 c2 e2 e2 | f4 d2 g2- | %32
w: grand sou-|hait,|à grand sou-|hait, sans|nul- le fa- che-|ri- * * * * *|e,|ie luy ay|dict de cueur|
 gfde fe ed/c/ | d2 d2 c4 | z2 c2 c2 c2 | d2 e2 f4 | e8 | z2 A2 c2 A2 | B2 c2 A4 | G2 c2 c2 B2 | %40
w: _ _ _ _ _ _ _ _ _|* de- hait,|a- col- lez|vo- stre'a- my-|e,|a- col- lez|vo- stre'a- my-|e, ung peu plus|
 A2 G2 ABcA | Bc d2 z2 G2 | ABcA Bc d2 | z2 A2 B2 A2 | d3 c B2 AG | A4 G2 B2 | c2 d2 BB c2 | %47
w: hault, ung peu plus hault ung|peu plus bas, ung|peu plus hault ung peu plus bas|mon a- my,|ie vous pri- * *|* e, ung|peu plus hault ung peu|
 A2 Gc BAdc | B2 AA B2 c2 | BG A2 GBcd | B2 z c cd B2 | z ABB cc d2 | B2 z A B2 c2 | BG A2 G4- | %54
w: plus bas, mon a- my ie vous|pri- e, mon a- my|ie vous pri- e, ung peu plus|hault, ung peu plus bas,|mon a- my ie vous pri-|e, mon a- my|ie vous pri- e.|
 G8 |] %55
w: _|
V:4
 z8 | D,2 E,F, G,E,F,G, | A,2 z2 D,2 E,F, | G,E,F,G, A,4 | z2 D,2 D,2 F,2 | G,2 E,2 D,4 | G,4 z4 | %7
w: |Ung peu plus hault ung peu plus|bas, ung peu plus|hault ung peu plus bas,|mon a- my|ie vous pri-|e,|
 z4 z2 C,2 | G,3 F, E,2 C,2 | G,4 C,4 | z4 z2 C,2 | F,2 G,2 A,2 F,2 | G,3 F, E,3 D,/C,/ | %13
w: laul-|trier iou- er ma-|loy- e,|en|no- stre iar- *||
 G,4 C,2 F,2- | F,2 E,2 F,2 G,2 | E,3 D,/C,/ G,4 | C,4 z2 G,2 | F,2 E,2 F,2 G,2 | C,4 z4 | %19
w: di- net, trou-|* vay em- my|ma _ _ voy-|e, mon|a- my Ro- bi-|net|
 z2 C2 C2 B,2 | A,2 C2 G,4 | z2 A,2 G,F, E,2 | F,2 G,2 A,2 D,2 | z8 | z4 C,2 F,2- | %25
w: mon a- my|Ro- bi- net,|le- quel m'a pris|à grand sou- hait||sans nul-|
 F,2 E,2 F,2 G,2 | A,4 G,4 | z2 D,2 D,2 D,2 | F,2 G,2 D,4 | G,4 z2 C,2 | C,2 F,2 E,2 C,2 | %31
w: * le fa- che-|ri- e,|sans nul- le|fa- che- ri-|e, ie|luy ay dict de|
 F,2 D,2 G,4 | z2 G,2 A,4 | G,4 C,2 F,2 | F,2 F,2 A,2 A,2 | G,4 F,3 E,/D,/ | C,4 z4 | %37
w: cueeur de- hait,|de cueur|de hait, a-|col- lez vo- stre'a-|my- * * *|e,|
 z2 D,2 C,2 F,2 | E,2 C,2 D,2 D,D, | E,2 C,2 F,2 z2 | z4 D,2 E,F, | G,E,F,G, A,2 z2 | %42
w: a- col- lez|vo- stre'a- my- e, ung|peu plus hault|ung peu plus|hault ung peu plu bas,|
 D,2 E,F, G,E,F,G, | A,4 z2 D,2 | D,2 F,2 G,2 E,2 | D,4 G,4 | z2 D,2 E,2 C,2 | D,D,E,C, D,2 z D, | %48
w: ung peu plus hault un peu plus|bas, mon|a- my ie vous|pri- e,|ung peu plus|hault un peu plus bas, mon|
 E,2 F,2 G,2 C,2 | D,4 G,2 z D, | E,2 C,2 F,D, E,2 | F,2 G,2 z2 D,2 | E,2 F,2 G,2 C,2 | D,4 G,4- | %54
w: a- my ie vous|pri- e, ung|peu plus hault ung peu|plus bas, mon|a- my ie vous|pri- e.|
 G,8 |] %55
w: _|

